static/images/team-frame-praveen.svg

<svg width="412" height="412" viewBox="0 0 412 412" fill="none" xmlns="http://www.w3.org/2000/svg">
<g clip-path="url(#clip0_1056_1446)">
<rect width="411.766" height="411.766" rx="15.8372" fill="#F6F6F1"/>
<path d="M12.2792 124.172C16.5218 126.189 20.7179 128.284 24.2977 131.403C24.4224 131.422 24.5394 131.462 24.6482 131.525C26.836 132.228 28.6451 133.549 30.3608 135.023C31.2567 135.792 32.5299 136.347 31.9874 137.923C32.3872 140.039 30.7081 140.464 29.3565 141.155C28.9344 141.268 28.5122 141.381 28.0901 141.493C27.0062 142.545 25.5607 142.254 24.2662 142.524C23.5417 142.543 22.8173 142.561 22.0929 142.58C21.2809 142.867 20.4736 142.925 19.6733 142.539C18.1795 142.835 16.706 142.718 15.2462 142.321C14.4229 142.777 13.7129 142.442 13.0187 142C12.8714 142.003 12.7382 141.961 12.6186 141.876C12.3827 141.919 12.147 141.961 11.9114 142.004C11.1271 142.23 10.395 142.001 9.66578 141.747C9.18079 142.115 9.08038 141.538 8.80303 141.396C8.56946 141.56 8.35507 141.559 8.16668 141.323C7.78335 141.329 7.40018 141.335 7.01685 141.341C6.36658 141.162 5.71563 140.982 5.06467 140.803C5.06467 140.803 4.9695 140.978 4.96882 140.979C5.66887 141.698 6.54373 142.136 7.45448 142.516C7.55969 142.661 7.66533 142.806 7.77123 142.951C8.47316 143.385 9.17508 143.82 9.87674 144.255C12.0674 145.363 14.2574 146.471 16.4478 147.579C16.4478 147.579 16.4478 147.579 16.4482 147.579C17.8087 147.516 18.6293 148.622 19.7403 149.099C20.5834 149.584 21.426 150.068 22.2688 150.554L22.2721 150.557C23.3116 150.284 23.9043 151.167 24.7096 151.498C27.5174 153.25 30.5304 154.673 33.1294 156.759C34.9083 158.186 37.7054 158.716 37.5832 161.817C37.5953 162.162 37.6078 162.508 37.6199 162.853C37.3808 164.278 37.0838 165.655 35.2545 165.805C35.7358 165.278 36.217 164.751 36.6982 164.223C36.3759 163.824 36.0543 163.424 35.7324 163.024C36.413 162.353 35.1554 162.201 35.3652 161.656C34.5071 160.52 33.6498 159.385 32.792 158.249C31.5648 158.586 30.7036 158.033 29.9974 157.101C29.7181 156.925 29.4384 156.749 29.1593 156.572C28.1769 155.955 27.1944 155.338 26.2122 154.72C25.5708 154.504 24.8708 154.404 24.4144 153.819C24.2588 153.857 24.1478 153.803 24.0818 153.657C24.1031 153.233 24.1248 152.808 24.1466 152.383C24.1252 152.808 24.1038 153.232 24.0818 153.657L24.0632 153.647C22.3238 153.319 21.0041 152.202 19.5877 151.268C19.426 151.276 19.2796 151.232 19.1486 151.137C17.9569 151.271 17.2462 150.377 16.369 149.838C14.5694 148.981 12.5883 148.481 11.0357 147.137C10.3377 147.114 9.83932 146.69 9.33093 146.286C7.25992 145.878 5.5927 144.691 3.93409 143.487C3.18989 143.118 2.09349 143.335 1.80532 142.207C1.02097 141.768 0.267461 141.316 -0.370027 140.642C-1.47211 139.476 -1.20992 138.458 0.105339 137.971C1.41461 137.487 2.92588 136.99 4.17157 138.316C5.1937 137.77 5.95272 138.528 6.80021 138.847C7.35857 139.2 7.91694 139.552 8.47531 139.905C8.47531 139.905 8.47531 139.905 8.47599 139.905C7.91737 139.553 7.359 139.2 6.80064 138.847C8.05 138.189 8.83139 139.474 9.89386 139.593C13.3401 139.966 16.7864 140.34 20.2326 140.713C20.6119 140.718 20.9905 140.723 21.3698 140.727C22.0467 140.586 22.7241 140.444 23.401 140.302C23.5414 140.243 23.6615 140.272 23.7605 140.388C24.2266 140.367 24.6928 140.346 25.1585 140.325C25.7716 140.268 26.3849 140.209 26.9983 140.151C27.6306 139.479 28.3211 138.93 29.3289 139.056C29.5649 138.702 29.8013 138.348 30.0373 137.994C28.5879 136.885 27.138 135.776 25.6884 134.667C24.1208 134.051 22.8068 133.024 21.4586 132.052C20.6029 131.545 19.7476 131.037 18.8919 130.53C17.1875 129.635 15.21 129.198 13.9363 127.579C11.8917 127.313 10.6194 125.641 8.8917 124.793C8.37218 124.537 7.45825 124.287 7.97636 123.421C8.37874 122.748 8.93427 122.178 9.98795 122.449C10.8787 122.678 11.2005 123.482 11.8937 123.865C12.0212 123.967 12.1502 124.07 12.2792 124.172ZM4.96825 141.8C4.90968 141.739 4.8445 141.691 4.77341 141.653C4.8445 141.691 4.90925 141.739 4.96825 141.8ZM26.6062 134.099C26.497 133.421 25.9661 133.062 25.4807 132.67C25.9657 133.062 26.4966 133.421 26.6062 134.099ZM28.1591 134.426C27.9709 133.714 27.6867 133.46 27.3278 133.56C27.6867 133.46 27.9713 133.714 28.1591 134.426Z" fill="#FC6B7E"/>
<path d="M35.2535 165.805C34.1046 166.97 32.9137 168.046 31.0863 167.784C30.2566 167.915 29.5013 168.785 28.5835 168.036C27.9752 168.145 27.3792 168.453 26.7453 168.15C26.3203 168.245 25.8949 168.339 25.4699 168.433C24.5292 168.641 23.6581 168.344 22.7842 168.064C22.4079 168.058 22.0316 168.053 21.6549 168.046C20.8594 168.456 20.1736 168.166 19.5135 167.711C19.1211 167.677 18.7289 167.643 18.3365 167.609C16.23 167.396 14.1103 167.234 12.2569 166.04C10.5785 166.405 9.17131 165.37 7.60937 165.137C6.6969 164.759 5.78485 164.382 4.87237 164.004C5.31646 165.289 6.58118 165.505 7.57296 166.077C8.13341 166.787 9.20933 166.926 9.56052 167.868C9.7856 168.044 10.0102 168.22 10.2349 168.396C11.7781 168.832 12.6886 170.15 13.9148 171.029C15.4897 171.718 16.7781 172.78 17.883 174.08C19.2757 174.743 20.174 175.992 21.3036 176.968C22.0352 177.38 22.619 177.894 22.5955 178.83C22.7206 178.898 22.8152 178.996 22.8803 179.122C23.0303 179.209 23.1803 179.294 23.3299 179.38C23.715 180.008 24.1003 180.636 24.4853 181.263C25.3395 181.757 25.4275 182.434 24.9613 183.245C24.7937 183.927 24.6264 184.609 24.4587 185.291C23.1102 187.579 21.101 189.014 18.6071 189.824C17.1708 190.448 15.7267 191.026 14.1088 190.614C13.8951 190.684 13.6816 190.754 13.4678 190.825C12.2989 191.753 11.0293 190.705 9.82841 191.011C9.40739 191.285 8.98557 191.553 8.50894 191.113C8.3574 191.094 8.21154 191.054 8.07162 190.992C7.11049 191.46 6.13233 191.219 5.15657 191.061C4.9352 191.05 4.71382 191.039 4.49261 191.028C1.81364 190.834 -0.863506 190.629 -3.40582 189.65C-3.56545 189.673 -3.70757 189.634 -3.83164 189.531C-6.002 189.55 -8.02406 188.931 -9.99855 188.104C-11.2538 188.068 -12.4264 187.759 -13.4777 187.05C-15.036 186.94 -16.466 186.44 -17.7936 185.628C-17.984 185.9 -18.1744 186.173 -18.3648 186.446C-18.2399 186.554 -18.1149 186.662 -17.9902 186.771C-15.8949 188.473 -13.4867 189.815 -11.8733 192.073C-11.2888 192.088 -10.9072 192.404 -10.6457 192.899C-8.13859 194.308 -6.06837 196.265 -3.98338 198.204C-3.24688 198.644 -2.49262 199.064 -2.09585 199.885C-1.95925 199.98 -1.82307 200.075 -1.68647 200.17C0.535946 200.98 1.80276 202.973 3.53701 204.387C3.38468 204.329 3.2338 204.28 3.08775 204.25C3.23422 204.281 3.38442 204.33 3.53675 204.388C3.8917 204.615 4.24622 204.843 4.60117 205.071C4.50887 205.241 4.41657 205.411 4.32385 205.582C4.41615 205.411 4.50845 205.241 4.60117 205.071C6.16391 206.099 7.76221 207.085 8.82428 208.697C9.35326 209.105 9.88223 209.514 10.4114 209.922C11.2062 210.623 11.991 211.336 12.7995 212.02C13.6714 212.759 14.3511 213.622 13.7697 214.779C13.1979 215.918 12.1445 215.981 11.0348 215.592C10.5066 215.921 10.0912 215.521 9.63649 215.374C8.31655 215.313 6.97803 215.377 5.73325 214.802C3.78672 214.607 1.91744 214.094 0.08263 213.437C-0.703854 213.192 -1.49009 212.946 -2.27657 212.701C-2.38923 212.541 -2.50163 212.381 -2.61429 212.221C-2.4892 212.005 -2.36386 211.789 -2.23887 211.574C-2.36386 211.789 -2.4892 212.005 -2.6155 212.222C-2.50189 212.381 -2.38923 212.541 -2.27657 212.701C-3.21303 212.821 -3.92188 212.254 -4.7018 211.9C-6.13436 211.952 -7.25881 211.066 -8.5348 210.641C-10.0877 210.313 -11.6193 209.931 -12.9071 208.927C-14.5551 209.038 -15.6261 207.494 -17.2122 207.427C-17.7791 207.131 -18.3459 206.835 -18.9125 206.539C-20.2486 206.574 -21.1074 205.59 -22.1604 205.021C-22.4434 204.913 -22.7261 204.804 -23.0087 204.696C-22.8422 204.361 -22.6758 204.026 -22.5097 203.691C-22.6762 204.026 -22.8426 204.36 -23.0087 204.696L-23.0208 204.696C-24.158 204.682 -24.9634 203.969 -25.8203 203.366C-26.1031 203.223 -26.3854 203.079 -26.668 202.935C-28.0876 202.775 -29.1705 201.927 -30.2948 201.163C-30.4445 201.083 -30.594 201.002 -30.7433 200.922C-30.8962 200.919 -31.0311 200.869 -31.1487 200.772C-32.6215 200.709 -33.6456 199.704 -34.8236 199.023C-35.4027 198.645 -36.2767 198.855 -36.6664 198.099C-36.7662 198.035 -36.8468 197.953 -36.9083 197.851C-38.3681 197.72 -39.4525 196.823 -40.593 196.042C-41.1644 195.711 -41.7359 195.381 -42.3074 195.05C-42.444 195.107 -42.5444 195.068 -42.609 194.935C-43.7504 194.887 -44.5857 194.188 -45.469 193.591C-45.8237 193.399 -46.2269 193.261 -46.5222 193.002C-46.9543 192.622 -48.0297 192.528 -47.5831 191.689C-47.1165 190.812 -46.3395 191.275 -45.7139 191.718C-44.6483 191.788 -43.7153 192.076 -43.291 193.197C-43.1993 193.174 -43.1139 193.188 -43.0341 193.238C-42.8124 193.24 -42.5908 193.242 -42.3693 193.243C-41.5756 193.083 -41.0602 193.634 -40.4677 193.987C-40.5392 194.101 -40.6112 194.214 -40.6824 194.327C-40.8037 194.289 -40.9197 194.239 -41.0307 194.177C-41.3715 194.324 -41.7122 194.471 -42.0535 194.617C-41.7126 194.47 -41.3715 194.324 -41.0306 194.178C-40.9197 194.239 -40.8037 194.289 -40.6824 194.327C-40.6109 194.214 -40.539 194.1 -40.4677 193.987C-38.992 195.066 -37.0297 195.316 -35.7604 196.747C-34.1556 196.857 -32.904 197.728 -31.6724 198.643C-31.5386 198.601 -31.4357 198.64 -31.3627 198.759C-31.3627 198.759 -31.3627 198.759 -31.3622 198.759C-30.3074 198.571 -29.7148 199.448 -28.9054 199.825C-28.7542 199.898 -28.6029 199.971 -28.4513 200.045C-26.0164 201.14 -23.458 201.965 -21.1747 203.389C-19.7559 203.854 -18.269 204.16 -17.0849 205.165C-17.0847 205.165 -17.0903 205.17 -17.0903 205.17C-16.2321 204.908 -15.7436 205.555 -15.1559 205.958C-13.2667 206.211 -11.7148 207.361 -9.9402 207.918C-8.7334 207.597 -8.1285 208.802 -7.13599 209.024C-7.13804 209.025 -7.1401 209.025 -7.14215 209.026C-5.29938 209.42 -3.49485 209.91 -1.96079 211.083C-1.82713 211.047 -1.71061 211.078 -1.6119 211.175C1.21412 210.855 3.72081 212.184 6.38031 212.725L6.38922 212.697C6.75752 212.71 7.12539 212.723 7.49395 212.736C8.14222 212.994 8.79092 213.253 9.43919 213.512C9.58891 213.533 9.73086 213.579 9.86447 213.65C10.0841 213.786 10.3068 213.868 10.5368 213.894C10.3064 213.868 10.0838 213.787 9.86447 213.65C10.1346 213.27 10.2471 212.873 10.0011 212.436C9.26811 212.058 8.53585 211.679 7.80291 211.301C7.68206 211.192 7.5743 211.071 7.47868 210.939C6.3959 209.611 4.67768 208.978 3.72418 207.509C2.92034 206.881 1.72158 206.753 1.32345 205.612C0.609416 204.884 -0.456119 204.554 -0.967742 203.596C-1.20948 203.406 -1.45094 203.216 -1.69267 203.026C-2.7764 202.505 -3.83517 201.955 -4.41505 200.814C-4.68873 200.629 -4.9631 200.445 -5.23679 200.261C-6.54544 199.752 -7.33003 198.588 -8.37367 197.749C-8.99003 197.421 -9.67058 197.167 -9.90128 196.402C-13.493 194.156 -16.6515 191.363 -19.7914 188.548C-19.9279 188.496 -20.0116 188.398 -20.0425 188.256C-21.1573 187.989 -21.572 186.928 -22.3207 186.247C-22.5888 186.072 -22.8566 185.897 -23.1243 185.723C-23.9178 185.574 -24.0759 184.973 -24.1346 184.302C-24.4595 183.896 -25.1044 183.747 -25.1129 183.085C-25.5044 182.45 -25.9466 181.843 -25.0597 181.207C-24.3611 180.706 -23.7352 180.41 -22.8223 180.77C-21.0105 181.483 -19.2831 182.343 -17.6248 183.353C-16.7183 182.801 -16.243 183.53 -15.6826 184.008C-15.5269 184.053 -15.3756 184.109 -15.2289 184.178C-10.4346 185.541 -5.64031 186.903 -0.846007 188.266C-0.262675 188.301 0.320394 188.337 0.903727 188.372C2.24688 187.86 3.2979 188.687 4.42996 189.142C4.63225 189.1 4.83471 189.06 5.03701 189.018C6.6111 188.75 8.18635 188.697 9.76286 188.999C9.46337 189.205 9.16363 189.412 8.86414 189.619C8.22656 189.34 7.66419 189.415 7.13518 189.724C7.66488 189.415 8.22683 189.34 8.86414 189.619C9.16415 189.411 9.46337 189.205 9.76286 188.999L9.75798 189.034C10.3601 188.839 10.9641 188.549 11.547 189.082C11.9272 189.054 12.3076 189.025 12.6873 188.997C13.7275 188.923 14.767 188.849 15.8072 188.776C18.0022 187.648 20.5091 187.054 22.1875 185.043C22.2846 184.908 22.3812 184.772 22.478 184.638C22.5441 184.635 22.6121 184.625 22.6814 184.611C22.6126 184.626 22.5445 184.636 22.478 184.638C22.6619 184.249 22.8458 183.86 23.0302 183.471C22.7825 182.901 22.2841 182.421 22.4012 181.72C22.3149 181.563 22.2285 181.406 22.1429 181.249C20.1819 179.368 18.2205 177.487 16.2593 175.606C15.1389 174.885 13.953 174.246 13.1583 173.12C12.89 172.932 12.6213 172.745 12.353 172.557C11.6599 172.25 10.9225 171.994 10.7138 171.131C10.6111 171.116 10.5135 171.085 10.4202 171.04C9.57084 171.062 8.9031 170.822 8.72898 169.869C7.96273 169.866 7.3261 169.653 7.06248 168.838C6.32418 168.719 5.96818 168.065 5.42886 167.668C5.14295 167.503 4.85721 167.339 4.57103 167.175C2.39355 165.837 0.0197414 164.784 -1.74733 162.847C-1.86089 162.911 -1.95363 162.889 -2.02665 162.782C-3.00909 162.684 -3.69385 162.148 -4.18044 161.32C-5.26474 160.57 -6.63794 160.177 -7.24324 158.836C-7.89691 158.471 -8.00816 158.003 -7.42489 157.498C-6.76075 156.924 -5.87155 156.588 -5.17759 157.134C-3.28819 158.622 -0.843441 158.971 1.07816 160.354C1.14942 160.61 1.22067 160.865 1.29194 161.121C1.50053 161.332 1.70914 161.544 1.91799 161.755C1.70939 161.543 1.5008 161.332 1.29263 161.12C1.22136 160.865 1.1501 160.609 1.07883 160.354C3.75917 161.396 6.4391 162.438 9.1197 163.479C9.90534 163.304 10.4437 163.851 11.0685 164.145C12.0108 163.965 12.796 164.535 13.666 164.701C14.4497 164.653 14.8777 165.707 15.7527 165.375C17.3453 165.272 18.8276 165.701 20.2708 166.316C20.6293 166.367 20.9876 166.418 21.3461 166.469C21.4829 166.457 21.6041 166.495 21.7091 166.584C22.3318 166.168 22.9691 166.525 23.6005 166.548C24.0079 166.297 24.3612 166.409 24.6851 166.711C25.501 166.572 26.2896 166.112 27.1507 166.497C28.3307 165.985 29.529 166.287 30.7241 166.414C32.5153 165.462 34.5842 164.922 35.7364 163.025C36.058 163.425 36.3799 163.824 36.702 164.225C36.2157 164.751 35.7348 165.277 35.2535 165.805ZM3.42122 212.889C4.3117 213.022 5.21371 213.087 6.12108 213.118C6.28244 213.303 6.37113 213.471 6.40553 213.627C6.37155 213.471 6.28286 213.303 6.12108 213.118C5.21397 213.086 4.31238 213.022 3.42122 212.889ZM9.36039 215.126C9.18413 214.956 9.03214 214.771 8.95481 214.541C9.03214 214.771 9.18439 214.955 9.36039 215.126ZM-4.88055 198.798C-4.66587 198.763 -4.4512 198.728 -4.2361 198.693C-3.84241 199.289 -3.44828 199.884 -3.05459 200.48C-3.44828 199.884 -3.84156 199.289 -4.23567 198.694C-4.4512 198.728 -4.66604 198.763 -4.88055 198.798ZM-19.8118 184.911C-19.6896 185.002 -19.566 185.093 -19.4416 185.182C-19.5346 185.519 -19.8428 185.853 -19.8091 186.194C-19.8432 185.853 -19.5346 185.519 -19.4412 185.182C-19.5656 185.093 -19.6892 185.002 -19.8118 184.911ZM-20.3016 182.906C-20.1831 182.947 -20.073 182.995 -19.9751 183.053C-20.0732 182.995 -20.1831 182.947 -20.3016 182.906ZM-19.9636 183.059C-19.9133 183.089 -19.8662 183.123 -19.8228 183.159C-19.8658 183.123 -19.9129 183.089 -19.9636 183.059ZM-9.2097 186.747C-8.11189 187.426 -6.90197 187.579 -5.68372 187.693C-6.90239 187.579 -8.11232 187.426 -9.2097 186.747ZM-2.58495 188.086C-2.39219 188.17 -2.25203 188.341 -2.22739 188.712C-2.06824 188.812 -1.90647 188.89 -1.73993 188.925C-1.90647 188.89 -2.06781 188.812 -2.22739 188.712C-2.2516 188.342 -2.39219 188.17 -2.58495 188.086ZM16.4719 175.604C16.4723 175.605 16.442 175.605 16.404 175.605L16.4719 175.604ZM11 170.032C10.8269 169.917 10.6485 169.806 10.493 169.684C10.6482 169.806 10.8267 169.918 11 170.032ZM5.19517 165.367C5.19543 165.367 5.19595 165.366 5.19664 165.366C4.32308 165.64 3.99886 165.485 3.93771 165.124C3.99844 165.485 4.3224 165.641 5.19517 165.367ZM-2.18515 161.416C-1.92358 161.425 -1.67509 161.511 -1.4553 161.771C-1.67551 161.511 -1.924 161.424 -2.18515 161.416ZM2.71104 162.562C2.70696 162.619 2.70761 162.674 2.71246 162.726C2.70735 162.674 2.70696 162.619 2.71104 162.562ZM4.81238 163.806C4.81238 163.806 4.82326 163.843 4.83556 163.884L4.81238 163.806Z" fill="#FC6B7E"/>
</g>
<defs>
<clipPath id="clip0_1056_1446">
<rect width="411.766" height="411.766" rx="15.8372" fill="white"/>
</clipPath>
</defs>
</svg>

<svg xmlns="http://www.w3.org/2000/svg" width="412" height="412" fill="none" viewBox="0 0 412 412"><g clip-path="url(#a)"><rect width="411.766" height="411.766" fill="#f6f6f1" rx="15.837"/><path fill="#fc6b7e" d="M12.28 124.172c4.242 2.017 8.438 4.112 12.018 7.231a1 1 0 0 1 .35.122c2.188.703 3.997 2.024 5.713 3.498.896.769 2.169 1.324 1.626 2.9.4 2.116-1.279 2.541-2.63 3.232l-1.267.338c-1.084 1.052-2.53.761-3.824 1.031l-2.173.056c-.812.287-1.62.345-2.42-.041-1.493.296-2.967.179-4.427-.218-.823.456-1.533.121-2.227-.321a.65.65 0 0 1-.4-.124l-.708.128c-.784.226-1.516-.003-2.245-.257-.485.368-.586-.209-.863-.351-.234.164-.448.163-.636-.073l-1.15.018-1.952-.538-.096.176c.7.719 1.575 1.157 2.485 1.537l.317.435 2.106 1.304 6.57 3.324h.001c1.36-.063 2.181 1.043 3.292 1.52l2.529 1.455.003.003c1.04-.273 1.632.61 2.438.941 2.807 1.752 5.82 3.175 8.42 5.261 1.778 1.427 4.575 1.957 4.453 5.058l.037 1.036c-.24 1.425-.536 2.802-2.365 2.952l1.443-1.582-.966-1.199c.681-.671-.577-.823-.367-1.368l-2.573-3.407c-1.227.337-2.088-.216-2.795-1.148l-.838-.529-2.947-1.852c-.641-.216-1.341-.316-1.798-.901q-.233.057-.332-.162l-.019-.01c-1.74-.328-3.059-1.445-4.475-2.379a.67.67 0 0 1-.44-.131c-1.191.134-1.902-.76-2.779-1.299-1.8-.857-3.78-1.357-5.333-2.701-.698-.023-1.197-.447-1.705-.851-2.071-.408-3.738-1.595-5.397-2.799-.744-.369-1.84-.152-2.129-1.28-.784-.439-1.538-.891-2.175-1.565-1.102-1.166-.84-2.184.475-2.671 1.31-.484 2.82-.981 4.067.345 1.022-.546 1.78.212 2.628.531l1.675 1.058h.001l-1.675-1.058c1.249-.658 2.03.627 3.093.746l10.339 1.12 1.137.014 2.031-.425q.21-.088.36.086l1.398-.063 1.84-.174c.632-.672 1.322-1.221 2.33-1.095l.708-1.062-4.349-3.327c-1.567-.616-2.881-1.643-4.23-2.615l-2.566-1.522c-1.704-.895-3.682-1.332-4.956-2.951-2.044-.266-3.317-1.938-5.044-2.786-.52-.256-1.434-.506-.916-1.372.403-.673.958-1.243 2.012-.972.89.229 1.213 1.033 1.906 1.416zm14.326 9.927c-.109-.678-.64-1.037-1.125-1.429.485.392 1.016.751 1.125 1.429m1.553.327c-.188-.712-.472-.966-.831-.866.359-.1.643.154.831.866"/><path fill="#fc6b7e" d="M35.254 165.805c-1.15 1.165-2.34 2.241-4.168 1.979-.83.131-1.585 1.001-2.502.252-.609.109-1.205.417-1.839.114l-1.275.283c-.94.208-1.812-.089-2.686-.369l-1.13-.018c-.795.41-1.48.12-2.14-.335l-1.177-.102c-2.107-.213-4.227-.375-6.08-1.569-1.678.365-3.086-.67-4.648-.903l-2.737-1.133c.444 1.285 1.71 1.501 2.701 2.073.56.71 1.636.849 1.988 1.791l.674.528c1.543.436 2.454 1.754 3.68 2.633 1.575.689 2.863 1.751 3.968 3.051 1.393.663 2.291 1.912 3.42 2.888.732.412 1.316.926 1.293 1.862a.7.7 0 0 1 .284.292l.45.258 1.155 1.883c.855.494.942 1.171.476 1.982l-.502 2.046c-1.349 2.288-3.358 3.723-5.852 4.533-1.436.624-2.88 1.202-4.498.79l-.641.211c-1.17.928-2.439-.12-3.64.186-.42.274-.842.542-1.32.102a1.6 1.6 0 0 1-.436-.121c-.962.468-1.94.227-2.915.069l-.664-.033c-2.68-.194-5.357-.399-7.899-1.378a.52.52 0 0 1-.426-.119c-2.17.019-4.192-.6-6.167-1.427-1.255-.036-2.427-.345-3.479-1.054-1.558-.11-2.988-.61-4.316-1.422l-.57.818.374.325c2.095 1.702 4.503 3.044 6.117 5.302.584.015.966.331 1.227.826 2.507 1.409 4.578 3.366 6.663 5.305.736.44 1.49.86 1.887 1.681l.41.285c2.222.81 3.489 2.803 5.223 4.217v.001l1.064.683-.277.511.277-.511c1.563 1.028 3.161 2.014 4.223 3.626l1.587 1.225c.795.701 1.58 1.414 2.389 2.098.871.739 1.551 1.602.97 2.759-.572 1.139-1.625 1.202-2.735.813-.528.329-.944-.071-1.399-.218-1.32-.061-2.658.003-3.903-.572-1.946-.195-3.816-.708-5.65-1.365l-2.36-.736-.337-.48.375-.647-.377.648.34.479c-.937.12-1.646-.447-2.426-.801-1.432.052-2.557-.834-3.833-1.259-1.553-.328-3.084-.71-4.372-1.714-1.648.111-2.72-1.433-4.305-1.5l-1.7-.888c-1.337.035-2.195-.949-3.248-1.518l-.849-.325.5-1.005q-.25.502-.5 1.005h-.012c-1.137-.014-1.942-.727-2.8-1.33l-.847-.431c-1.42-.16-2.503-1.008-3.627-1.772l-.448-.241a.64.64 0 0 1-.406-.15c-1.472-.063-2.497-1.068-3.675-1.749-.579-.378-1.453-.168-1.842-.924a.75.75 0 0 1-.242-.248c-1.46-.131-2.544-1.028-3.685-1.809l-1.714-.992q-.205.085-.302-.115c-1.141-.048-1.977-.747-2.86-1.344-.355-.192-.758-.33-1.053-.589-.432-.38-1.508-.474-1.061-1.313.466-.877 1.243-.414 1.87.029 1.065.07 1.998.358 2.422 1.479a.32.32 0 0 1 .257.041l.665.005c.793-.16 1.309.391 1.901.744l-.214.34a2 2 0 0 1-.349-.15q-.51.22-1.023.44l1.023-.439a2 2 0 0 0 .349.149l.214-.34c1.476 1.079 3.438 1.329 4.708 2.76 1.604.11 2.856.981 4.088 1.896q.2-.063.31.116c1.055-.188 1.647.689 2.457 1.066l.454.22c2.435 1.095 4.993 1.92 7.276 3.344 1.42.465 2.906.771 4.09 1.776l-.005.005c.858-.262 1.346.385 1.934.788 1.89.253 3.441 1.403 5.216 1.96 1.207-.321 1.811.884 2.804 1.106l-.006.002c1.843.394 3.647.884 5.181 2.057a.34.34 0 0 1 .35.092c2.825-.32 5.332 1.009 7.991 1.55l.01-.028 1.104.039 1.945.776q.225.031.425.138c.27-.38.383-.777.137-1.214l-2.198-1.135a2.3 2.3 0 0 1-.324-.362c-1.083-1.328-2.801-1.961-3.755-3.43-.804-.628-2.002-.756-2.4-1.897-.715-.728-1.78-1.058-2.292-2.016l-.725-.57c-1.083-.521-2.142-1.071-2.722-2.212l-.822-.553c-1.308-.509-2.093-1.673-3.137-2.512-.616-.328-1.297-.582-1.527-1.347-3.592-2.246-6.75-5.039-9.89-7.854a.38.38 0 0 1-.252-.292c-1.114-.267-1.529-1.328-2.278-2.009l-.803-.524c-.794-.149-.952-.75-1.01-1.421-.325-.406-.97-.555-.979-1.217-.391-.635-.834-1.242.053-1.878.699-.501 1.325-.797 2.238-.437a33.7 33.7 0 0 1 5.197 2.583c.907-.552 1.382.177 1.942.655q.234.067.454.17l14.383 4.088 1.75.106c1.343-.512 2.394.315 3.526.77l.607-.124c1.574-.268 3.15-.321 4.726-.019l-.899.62c-.637-.279-1.2-.204-1.729.105.53-.309 1.092-.384 1.73-.105l.898-.62-.005.035c.602-.195 1.206-.485 1.789.048l1.14-.085 3.12-.221c2.195-1.128 4.702-1.722 6.38-3.733l.291-.405.552-1.167c-.248-.57-.746-1.05-.629-1.751l-.258-.471-5.884-5.643c-1.12-.721-2.306-1.36-3.1-2.486l-.806-.563c-.693-.307-1.43-.563-1.64-1.426a1 1 0 0 1-.293-.091c-.85.022-1.517-.218-1.691-1.171-.766-.003-1.403-.216-1.667-1.031-.738-.119-1.094-.773-1.633-1.17l-.858-.493c-2.177-1.338-4.551-2.391-6.318-4.328q-.17.096-.28-.065c-.982-.098-1.667-.634-2.153-1.462-1.085-.75-2.458-1.143-3.063-2.484-.654-.365-.765-.833-.182-1.338.664-.574 1.553-.91 2.247-.364 1.89 1.488 4.335 1.837 6.256 3.22l.214.767.626.634-.625-.635-.214-.766 8.04 3.125c.786-.175 1.325.372 1.95.666.942-.18 1.727.39 2.597.556.784-.048 1.212 1.006 2.087.674 1.592-.103 3.075.326 4.518.941l1.075.153a.48.48 0 0 1 .363.115c.623-.416 1.26-.059 1.892-.036.407-.251.76-.139 1.084.163.816-.139 1.605-.599 2.466-.214 1.18-.512 2.378-.21 3.573-.083 1.791-.952 3.86-1.492 5.012-3.389l.966 1.2q-.728.788-1.448 1.58M3.42 212.889c.89.133 1.793.198 2.7.229.161.185.25.353.285.509-.034-.156-.123-.324-.285-.509a24 24 0 0 1-2.7-.229m5.94 2.237c-.177-.17-.329-.355-.406-.585.077.23.23.414.405.585m-14.242-16.328.645-.105 1.181 1.787-1.18-1.786zm-14.93-13.887q.182.137.37.271c-.094.337-.402.671-.368 1.012-.034-.341.274-.675.368-1.012q-.187-.134-.37-.271m10.601 1.836c1.098.679 2.308.832 3.526.946-1.218-.114-2.428-.267-3.526-.946m6.625 1.339c.193.084.333.255.358.626-.025-.37-.165-.542-.358-.626m19.057-12.482-.068.001zM11 170.032c-.173-.115-.351-.226-.507-.348.155.122.334.234.507.348m-5.805-4.665.002-.001c-.874.274-1.198.119-1.26-.242.061.361.385.517 1.258.243m-.383-1.561.024.078z"/></g><defs><clipPath id="a"><rect width="411.766" height="411.766" fill="#fff" rx="15.837"/></clipPath></defs></svg>
